filters/warm.cube
TITLE "warm"
LUT_3D_SIZE 5
0.040000 0.000000 0.000000
0.320000 0.000000 0.000000
0.600000 0.000000 0.000000
0.880000 0.000000 0.000000
1.000000 0.000000 0.000000
0.040000 0.252500 0.000000
0.320000 0.252500 0.000000
0.600000 0.252500 0.000000
0.880000 0.252500 0.000000
1.000000 0.252500 0.000000
0.040000 0.505000 0.000000
0.320000 0.505000 0.000000
0.600000 0.505000 0.000000
0.880000 0.505000 0.000000
1.000000 0.505000 0.000000
0.040000 0.757500 0.000000
0.320000 0.757500 0.000000
0.600000 0.757500 0.000000
0.880000 0.757500 0.000000
1.000000 0.757500 0.000000
0.040000 1.000000 0.000000
0.320000 1.000000 0.000000
0.600000 1.000000 0.000000
0.880000 1.000000 0.000000
1.000000 1.000000 0.000000
0.040000 0.000000 0.200000
0.320000 0.000000 0.200000
0.600000 0.000000 0.200000
0.880000 0.000000 0.200000
1.000000 0.000000 0.200000
0.040000 0.252500 0.200000
0.320000 0.252500 0.200000
0.600000 0.252500 0.200000
0.880000 0.252500 0.200000
1.000000 0.252500 0.200000
0.040000 0.505000 0.200000
0.320000 0.505000 0.200000
0.600000 0.505000 0.200000
0.880000 0.505000 0.200000
1.000000 0.505000 0.200000
0.040000 0.757500 0.200000
0.320000 0.757500 0.200000
0.600000 0.757500 0.200000
0.880000 0.757500 0.200000
1.000000 0.757500 0.200000
0.040000 1.000000 0.200000
0.320000 1.000000 0.200000
0.600000 1.000000 0.200000
0.880000 1.000000 0.200000
1.000000 1.000000 0.200000
0.040000 0.000000 0.400000
0.320000 0.000000 0.400000
0.600000 0.000000 0.400000
0.880000 0.000000 0.400000
1.000000 0.000000 0.400000
0.040000 0.252500 0.400000
0.320000 0.252500 0.400000
0.600000 0.252500 0.400000
0.880000 0.252500 0.400000
1.000000 0.252500 0.400000
0.040000 0.505000 0.400000
0.320000 0.505000 0.400000
0.600000 0.505000 0.400000
0.880000 0.505000 0.400000
1.000000 0.505000 0.400000
0.040000 0.757500 0.400000
0.320000 0.757500 0.400000
0.600000 0.757500 0.400000
0.880000 0.757500 0.400000
1.000000 0.757500 0.400000
0.040000 1.000000 0.400000
0.320000 1.000000 0.400000
0.600000 1.000000 0.400000
0.880000 1.000000 0.400000
1.000000 1.000000 0.400000
0.040000 0.000000 0.600000
0.320000 0.000000 0.600000
0.600000 0.000000 0.600000
0.880000 0.000000 0.600000
1.000000 0.000000 0.600000
0.040000 0.252500 0.600000
0.320000 0.252500 0.600000
0.600000 0.252500 0.600000
0.880000 0.252500 0.600000
1.000000 0.252500 0.600000
0.040000 0.505000 0.600000
0.320000 0.505000 0.600000
0.600000 0.505000 0.600000
0.880000 0.505000 0.600000
1.000000 0.505000 0.600000
0.040000 0.757500 0.600000
0.320000 0.757500 0.600000
0.600000 0.757500 0.600000
0.880000 0.757500 0.600000
1.000000 0.757500 0.600000
0.040000 1.000000 0.600000
0.320000 1.000000 0.600000
0.600000 1.000000 0.600000
0.880000 1.000000 0.600000
1.000000 1.000000 0.600000
0.040000 0.000000 0.800000
0.320000 0.000000 0.800000
0.600000 0.000000 0.800000
0.880000 0.000000 0.800000
1.000000 0.000000 0.800000
0.040000 0.252500 0.800000
0.320000 0.252500 0.800000
0.600000 0.252500 0.800000
0.880000 0.252500 0.800000
1.000000 0.252500 0.800000
0.040000 0.505000 0.800000
0.320000 0.505000 0.800000
0.600000 0.505000 0.800000
0.880000 0.505000 0.800000
1.000000 0.505000 0.800000
0.040000 0.757500 0.800000
0.320000 0.757500 0.800000
0.600000 0.757500 0.800000
0.880000 0.757500 0.800000
1.000000 0.757500 0.800000
0.040000 1.000000 0.800000
0.320000 1.000000 0.800000
0.600000 1.000000 0.800000
0.880000 1.000000 0.800000
1.000000 1.000000 0.800000
