filters/warm.cube
TITLE "warm"
LUT_3D_SIZE 9
0.040000 0.000000 0.000000
0.180000 0.000000 0.000000
0.320000 0.000000 0.000000
0.460000 0.000000 0.000000
0.600000 0.000000 0.000000
0.740000 0.000000 0.000000
0.880000 0.000000 0.000000
1.000000 0.000000 0.000000
1.000000 0.000000 0.000000
0.040000 0.126250 0.000000
0.180000 0.126250 0.000000
0.320000 0.126250 0.000000
0.460000 0.126250 0.000000
0.600000 0.126250 0.000000
0.740000 0.126250 0.000000
0.880000 0.126250 0.000000
1.000000 0.126250 0.000000
1.000000 0.126250 0.000000
0.040000 0.252500 0.000000
0.180000 0.252500 0.000000
0.320000 0.252500 0.000000
0.460000 0.252500 0.000000
0.600000 0.252500 0.000000
0.740000 0.252500 0.000000
0.880000 0.252500 0.000000
1.000000 0.252500 0.000000
1.000000 0.252500 0.000000
0.040000 0.378750 0.000000
0.180000 0.378750 0.000000
0.320000 0.378750 0.000000
0.460000 0.378750 0.000000
0.600000 0.378750 0.000000
0.740000 0.378750 0.000000
0.880000 0.378750 0.000000
1.000000 0.378750 0.000000
1.000000 0.378750 0.000000
0.040000 0.505000 0.000000
0.180000 0.505000 0.000000
0.320000 0.505000 0.000000
0.460000 0.505000 0.000000
0.600000 0.505000 0.000000
0.740000 0.505000 0.000000
0.880000 0.505000 0.000000
1.000000 0.505000 0.000000
1.000000 0.505000 0.000000
0.040000 0.631250 0.000000
0.180000 0.631250 0.000000
0.320000 0.631250 0.000000
0.460000 0.631250 0.000000
0.600000 0.631250 0.000000
0.740000 0.631250 0.000000
0.880000 0.631250 0.000000
1.000000 0.631250 0.000000
1.000000 0.631250 0.000000
0.040000 0.757500 0.000000
0.180000 0.757500 0.000000
0.320000 0.757500 0.000000
0.460000 0.757500 0.000000
0.600000 0.757500 0.000000
0.740000 0.757500 0.000000
0.880000 0.757500 0.000000
1.000000 0.757500 0.000000
1.000000 0.757500 0.000000
0.040000 0.883750 0.000000
0.180000 0.883750 0.000000
0.320000 0.883750 0.000000
0.460000 0.883750 0.000000
0.600000 0.883750 0.000000
0.740000 0.883750 0.000000
0.880000 0.883750 0.000000
1.000000 0.883750 0.000000
1.000000 0.883750 0.000000
0.040000 1.000000 0.000000
0.180000 1.000000 0.000000
0.320000 1.000000 0.000000
0.460000 1.000000 0.000000
0.600000 1.000000 0.000000
0.740000 1.000000 0.000000
0.880000 1.000000 0.000000
1.000000 1.000000 0.000000
1.000000 1.000000 0.000000
0.040000 0.000000 0.100000
0.180000 0.000000 0.100000
0.320000 0.000000 0.100000
0.460000 0.000000 0.100000
0.600000 0.000000 0.100000
0.740000 0.000000 0.100000
0.880000 0.000000 0.100000
1.000000 0.000000 0.100000
1.000000 0.000000 0.100000
0.040000 0.126250 0.100000
0.180000 0.126250 0.100000
0.320000 0.126250 0.100000
0.460000 0.126250 0.100000
0.600000 0.126250 0.100000
0.740000 0.126250 0.100000
0.880000 0.126250 0.100000
1.000000 0.126250 0.100000
1.000000 0.126250 0.100000
0.040000 0.252500 0.100000
0.180000 0.252500 0.100000
0.320000 0.252500 0.100000
0.460000 0.252500 0.100000
0.600000 0.252500 0.100000
0.740000 0.252500 0.100000
0.880000 0.252500 0.100000
1.000000 0.252500 0.100000
1.000000 0.252500 0.100000
0.040000 0.378750 0.100000
0.180000 0.378750 0.100000
0.320000 0.378750 0.100000
0.460000 0.378750 0.100000
0.600000 0.378750 0.100000
0.740000 0.378750 0.100000
0.880000 0.378750 0.100000
1.000000 0.378750 0.100000
1.000000 0.378750 0.100000
0.040000 0.505000 0.100000
0.180000 0.505000 0.100000
0.320000 0.505000 0.100000
0.460000 0.505000 0.100000
0.600000 0.505000 0.100000
0.740000 0.505000 0.100000
0.880000 0.505000 0.100000
1.000000 0.505000 0.100000
1.000000 0.505000 0.100000
0.040000 0.631250 0.100000
0.180000 0.631250 0.100000
0.320000 0.631250 0.100000
0.460000 0.631250 0.100000
0.600000 0.631250 0.100000
0.740000 0.631250 0.100000
0.880000 0.631250 0.100000
1.000000 0.631250 0.100000
1.000000 0.631250 0.100000
0.040000 0.757500 0.100000
0.180000 0.757500 0.100000
0.320000 0.757500 0.100000
0.460000 0.757500 0.100000
0.600000 0.757500 0.100000
0.740000 0.757500 0.100000
0.880000 0.757500 0.100000
1.000000 0.757500 0.100000
1.000000 0.757500 0.100000
0.040000 0.883750 0.100000
0.180000 0.883750 0.100000
0.320000 0.883750 0.100000
0.460000 0.883750 0.100000
0.600000 0.883750 0.100000
0.740000 0.883750 0.100000
0.880000 0.883750 0.100000
1.000000 0.883750 0.100000
1.000000 0.883750 0.100000
0.040000 1.000000 0.100000
0.180000 1.000000 0.100000
0.320000 1.000000 0.100000
0.460000 1.000000 0.100000
0.600000 1.000000 0.100000
0.740000 1.000000 0.100000
0.880000 1.000000 0.100000
1.000000 1.000000 0.100000
1.000000 1.000000 0.100000
0.040000 0.000000 0.200000
0.180000 0.000000 0.200000
0.320000 0.000000 0.200000
0.460000 0.000000 0.200000
0.600000 0.000000 0.200000
0.740000 0.000000 0.200000
0.880000 0.000000 0.200000
1.000000 0.000000 0.200000
1.000000 0.000000 0.200000
0.040000 0.126250 0.200000
0.180000 0.126250 0.200000
0.320000 0.126250 0.200000
0.460000 0.126250 0.200000
0.600000 0.126250 0.200000
0.740000 0.126250 0.200000
0.880000 0.126250 0.200000
1.000000 0.126250 0.200000
1.000000 0.126250 0.200000
0.040000 0.252500 0.200000
0.180000 0.252500 0.200000
0.320000 0.252500 0.200000
0.460000 0.252500 0.200000
0.600000 0.252500 0.200000
0.740000 0.252500 0.200000
0.880000 0.252500 0.200000
1.000000 0.252500 0.200000
1.000000 0.252500 0.200000
0.040000 0.378750 0.200000
0.180000 0.378750 0.200000
0.320000 0.378750 0.200000
0.460000 0.378750 0.200000
0.600000 0.378750 0.200000
0.740000 0.378750 0.200000
0.880000 0.378750 0.200000
1.000000 0.378750 0.200000
1.000000 0.378750 0.200000
0.040000 0.505000 0.200000
0.180000 0.505000 0.200000
0.320000 0.505000 0.200000
0.460000 0.505000 0.200000
0.600000 0.505000 0.200000
0.740000 0.505000 0.200000
0.880000 0.505000 0.200000
1.000000 0.505000 0.200000
1.000000 0.505000 0.200000
0.040000 0.631250 0.200000
0.180000 0.631250 0.200000
0.320000 0.631250 0.200000
0.460000 0.631250 0.200000
0.600000 0.631250 0.200000
0.740000 0.631250 0.200000
0.880000 0.631250 0.200000
1.000000 0.631250 0.200000
1.000000 0.631250 0.200000
0.040000 0.757500 0.200000
0.180000 0.757500 0.200000
0.320000 0.757500 0.200000
0.460000 0.757500 0.200000
0.600000 0.757500 0.200000
0.740000 0.757500 0.200000
0.880000 0.757500 0.200000
1.000000 0.757500 0.200000
1.000000 0.757500 0.200000
0.040000 0.883750 0.200000
0.180000 0.883750 0.200000
0.320000 0.883750 0.200000
0.460000 0.883750 0.200000
0.600000 0.883750 0.200000
0.740000 0.883750 0.200000
0.880000 0.883750 0.200000
1.000000 0.883750 0.200000
1.000000 0.883750 0.200000
0.040000 1.000000 0.200000
0.180000 1.000000 0.200000
0.320000 1.000000 0.200000
0.460000 1.000000 0.200000
0.600000 1.000000 0.200000
0.740000 1.000000 0.200000
0.880000 1.000000 0.200000
1.000000 1.000000 0.200000
1.000000 1.000000 0.200000
0.040000 0.000000 0.300000
0.180000 0.000000 0.300000
0.320000 0.000000 0.300000
0.460000 0.000000 0.300000
0.600000 0.000000 0.300000
0.740000 0.000000 0.300000
0.880000 0.000000 0.300000
1.000000 0.000000 0.300000
1.000000 0.000000 0.300000
0.040000 0.126250 0.300000
0.180000 0.126250 0.300000
0.320000 0.126250 0.300000
0.460000 0.126250 0.300000
0.600000 0.126250 0.300000
0.740000 0.126250 0.300000
0.880000 0.126250 0.300000
1.000000 0.126250 0.300000
1.000000 0.126250 0.300000
0.040000 0.252500 0.300000
0.180000 0.252500 0.300000
0.320000 0.252500 0.300000
0.460000 0.252500 0.300000
0.600000 0.252500 0.300000
0.740000 0.252500 0.300000
0.880000 0.252500 0.300000
1.000000 0.252500 0.300000
1.000000 0.252500 0.300000
0.040000 0.378750 0.300000
0.180000 0.378750 0.300000
0.320000 0.378750 0.300000
0.460000 0.378750 0.300000
0.600000 0.378750 0.300000
0.740000 0.378750 0.300000
0.880000 0.378750 0.300000
1.000000 0.378750 0.300000
1.000000 0.378750 0.300000
0.040000 0.505000 0.300000
0.180000 0.505000 0.300000
0.320000 0.505000 0.300000
0.460000 0.505000 0.300000
0.600000 0.505000 0.300000
0.740000 0.505000 0.300000
0.880000 0.505000 0.300000
1.000000 0.505000 0.300000
1.000000 0.505000 0.300000
0.040000 0.631250 0.300000
0.180000 0.631250 0.300000
0.320000 0.631250 0.300000
0.460000 0.631250 0.300000
0.600000 0.631250 0.300000
0.740000 0.631250 0.300000
0.880000 0.631250 0.300000
1.000000 0.631250 0.300000
1.000000 0.631250 0.300000
0.040000 0.757500 0.300000
0.180000 0.757500 0.300000
0.320000 0.757500 0.300000
0.460000 0.757500 0.300000
0.600000 0.757500 0.300000
0.740000 0.757500 0.300000
0.880000 0.757500 0.300000
1.000000 0.757500 0.300000
1.000000 0.757500 0.300000
0.040000 0.883750 0.300000
0.180000 0.883750 0.300000
0.320000 0.883750 0.300000
0.460000 0.883750 0.300000
0.600000 0.883750 0.300000
0.740000 0.883750 0.300000
0.880000 0.883750 0.300000
1.000000 0.883750 0.300000
1.000000 0.883750 0.300000
0.040000 1.000000 0.300000
0.180000 1.000000 0.300000
0.320000 1.000000 0.300000
0.460000 1.000000 0.300000
0.600000 1.000000 0.300000
0.740000 1.000000 0.300000
0.880000 1.000000 0.300000
1.000000 1.000000 0.300000
1.000000 1.000000 0.300000
0.040000 0.000000 0.400000
0.180000 0.000000 0.400000
0.320000 0.000000 0.400000
0.460000 0.000000 0.400000
0.600000 0.000000 0.400000
0.740000 0.000000 0.400000
0.880000 0.000000 0.400000
1.000000 0.000000 0.400000
1.000000 0.000000 0.400000
0.040000 0.126250 0.400000
0.180000 0.126250 0.400000
0.320000 0.126250 0.400000
0.460000 0.126250 0.400000
0.600000 0.126250 0.400000
0.740000 0.126250 0.400000
0.880000 0.126250 0.400000
1.000000 0.126250 0.400000
1.000000 0.126250 0.400000
0.040000 0.252500 0.400000
0.180000 0.252500 0.400000
0.320000 0.252500 0.400000
0.460000 0.252500 0.400000
0.600000 0.252500 0.400000
0.740000 0.252500 0.400000
0.880000 0.252500 0.400000
1.000000 0.252500 0.400000
1.000000 0.252500 0.400000
0.040000 0.378750 0.400000
0.180000 0.378750 0.400000
0.320000 0.378750 0.400000
0.460000 0.378750 0.400000
0.600000 0.378750 0.400000
0.740000 0.378750 0.400000
0.880000 0.378750 0.400000
1.000000 0.378750 0.400000
1.000000 0.378750 0.400000
0.040000 0.505000 0.400000
0.180000 0.505000 0.400000
0.320000 0.505000 0.400000
0.460000 0.505000 0.400000
0.600000 0.505000 0.400000
0.740000 0.505000 0.400000
0.880000 0.505000 0.400000
1.000000 0.505000 0.400000
1.000000 0.505000 0.400000
0.040000 0.631250 0.400000
0.180000 0.631250 0.400000
0.320000 0.631250 0.400000
0.460000 0.631250 0.400000
0.600000 0.631250 0.400000
0.740000 0.631250 0.400000
0.880000 0.631250 0.400000
1.000000 0.631250 0.400000
1.000000 0.631250 0.400000
0.040000 0.757500 0.400000
0.180000 0.757500 0.400000
0.320000 0.757500 0.400000
0.460000 0.757500 0.400000
0.600000 0.757500 0.400000
0.740000 0.757500 0.400000
0.880000 0.757500 0.400000
1.000000 0.757500 0.400000
1.000000 0.757500 0.400000
0.040000 0.883750 0.400000
0.180000 0.883750 0.400000
0.320000 0.883750 0.400000
0.460000 0.883750 0.400000
0.600000 0.883750 0.400000
0.740000 0.883750 0.400000
0.880000 0.883750 0.400000
1.000000 0.883750 0.400000
1.000000 0.883750 0.400000
0.040000 1.000000 0.400000
0.180000 1.000000 0.400000
0.320000 1.000000 0.400000
0.460000 1.000000 0.400000
0.600000 1.000000 0.400000
0.740000 1.000000 0.400000
0.880000 1.000000 0.400000
1.000000 1.000000 0.400000
1.000000 1.000000 0.400000
0.040000 0.000000 0.500000
0.180000 0.000000 0.500000
0.320000 0.000000 0.500000
0.460000 0.000000 0.500000
0.600000 0.000000 0.500000
0.740000 0.000000 0.500000
0.880000 0.000000 0.500000
1.000000 0.000000 0.500000
1.000000 0.000000 0.500000
0.040000 0.126250 0.500000
0.180000 0.126250 0.500000
0.320000 0.126250 0.500000
0.460000 0.126250 0.500000
0.600000 0.126250 0.500000
0.740000 0.126250 0.500000
0.880000 0.126250 0.500000
1.000000 0.126250 0.500000
1.000000 0.126250 0.500000
0.040000 0.252500 0.500000
0.180000 0.252500 0.500000
0.320000 0.252500 0.500000
0.460000 0.252500 0.500000
0.600000 0.252500 0.500000
0.740000 0.252500 0.500000
0.880000 0.252500 0.500000
1.000000 0.252500 0.500000
1.000000 0.252500 0.500000
0.040000 0.378750 0.500000
0.180000 0.378750 0.500000
0.320000 0.378750 0.500000
0.460000 0.378750 0.500000
0.600000 0.378750 0.500000
0.740000 0.378750 0.500000
0.880000 0.378750 0.500000
1.000000 0.378750 0.500000
1.000000 0.378750 0.500000
0.040000 0.505000 0.500000
0.180000 0.505000 0.500000
0.320000 0.505000 0.500000
0.460000 0.505000 0.500000
0.600000 0.505000 0.500000
0.740000 0.505000 0.500000
0.880000 0.505000 0.500000
1.000000 0.505000 0.500000
1.000000 0.505000 0.500000
0.040000 0.631250 0.500000
0.180000 0.631250 0.500000
0.320000 0.631250 0.500000
0.460000 0.631250 0.500000
0.600000 0.631250 0.500000
0.740000 0.631250 0.500000
0.880000 0.631250 0.500000
1.000000 0.631250 0.500000
1.000000 0.631250 0.500000
0.040000 0.757500 0.500000
0.180000 0.757500 0.500000
0.320000 0.757500 0.500000
0.460000 0.757500 0.500000
0.600000 0.757500 0.500000
0.740000 0.757500 0.500000
0.880000 0.757500 0.500000
1.000000 0.757500 0.500000
1.000000 0.757500 0.500000
0.040000 0.883750 0.500000
0.180000 0.883750 0.500000
0.320000 0.883750 0.500000
0.460000 0.883750 0.500000
0.600000 0.883750 0.500000
0.740000 0.883750 0.500000
0.880000 0.883750 0.500000
1.000000 0.883750 0.500000
1.000000 0.883750 0.500000
0.040000 1.000000 0.500000
0.180000 1.000000 0.500000
0.320000 1.000000 0.500000
0.460000 1.000000 0.500000
0.600000 1.000000 0.500000
0.740000 1.000000 0.500000
0.880000 1.000000 0.500000
1.000000 1.000000 0.500000
1.000000 1.000000 0.500000
0.040000 0.000000 0.600000
0.180000 0.000000 0.600000
0.320000 0.000000 0.600000
0.460000 0.000000 0.600000
0.600000 0.000000 0.600000
0.740000 0.000000 0.600000
0.880000 0.000000 0.600000
1.000000 0.000000 0.600000
1.000000 0.000000 0.600000
0.040000 0.126250 0.600000
0.180000 0.126250 0.600000
0.320000 0.126250 0.600000
0.460000 0.126250 0.600000
0.600000 0.126250 0.600000
0.740000 0.126250 0.600000
0.880000 0.126250 0.600000
1.000000 0.126250 0.600000
1.000000 0.126250 0.600000
0.040000 0.252500 0.600000
0.180000 0.252500 0.600000
0.320000 0.252500 0.600000
0.460000 0.252500 0.600000
0.600000 0.252500 0.600000
0.740000 0.252500 0.600000
0.880000 0.252500 0.600000
1.000000 0.252500 0.600000
1.000000 0.252500 0.600000
0.040000 0.378750 0.600000
0.180000 0.378750 0.600000
0.320000 0.378750 0.600000
0.460000 0.378750 0.600000
0.600000 0.378750 0.600000
0.740000 0.378750 0.600000
0.880000 0.378750 0.600000
1.000000 0.378750 0.600000
1.000000 0.378750 0.600000
0.040000 0.505000 0.600000
0.180000 0.505000 0.600000
0.320000 0.505000 0.600000
0.460000 0.505000 0.600000
0.600000 0.505000 0.600000
0.740000 0.505000 0.600000
0.880000 0.505000 0.600000
1.000000 0.505000 0.600000
1.000000 0.505000 0.600000
0.040000 0.631250 0.600000
0.180000 0.631250 0.600000
0.320000 0.631250 0.600000
0.460000 0.631250 0.600000
0.600000 0.631250 0.600000
0.740000 0.631250 0.600000
0.880000 0.631250 0.600000
1.000000 0.631250 0.600000
1.000000 0.631250 0.600000
0.040000 0.757500 0.600000
0.180000 0.757500 0.600000
0.320000 0.757500 0.600000
0.460000 0.757500 0.600000
0.600000 0.757500 0.600000
0.740000 0.757500 0.600000
0.880000 0.757500 0.600000
1.000000 0.757500 0.600000
1.000000 0.757500 0.600000
0.040000 0.883750 0.600000
0.180000 0.883750 0.600000
0.320000 0.883750 0.600000
0.460000 0.883750 0.600000
0.600000 0.883750 0.600000
0.740000 0.883750 0.600000
0.880000 0.883750 0.600000
1.000000 0.883750 0.600000
1.000000 0.883750 0.600000
0.040000 1.000000 0.600000
0.180000 1.000000 0.600000
0.320000 1.000000 0.600000
0.460000 1.000000 0.600000
0.600000 1.000000 0.600000
0.740000 1.000000 0.600000
0.880000 1.000000 0.600000
1.000000 1.000000 0.600000
1.000000 1.000000 0.600000
0.040000 0.000000 0.700000
0.180000 0.000000 0.700000
0.320000 0.000000 0.700000
0.460000 0.000000 0.700000
0.600000 0.000000 0.700000
0.740000 0.000000 0.700000
0.880000 0.000000 0.700000
1.000000 0.000000 0.700000
1.000000 0.000000 0.700000
0.040000 0.126250 0.700000
0.180000 0.126250 0.700000
0.320000 0.126250 0.700000
0.460000 0.126250 0.700000
0.600000 0.126250 0.700000
0.740000 0.126250 0.700000
0.880000 0.126250 0.700000
1.000000 0.126250 0.700000
1.000000 0.126250 0.700000
0.040000 0.252500 0.700000
0.180000 0.252500 0.700000
0.320000 0.252500 0.700000
0.460000 0.252500 0.700000
0.600000 0.252500 0.700000
0.740000 0.252500 0.700000
0.880000 0.252500 0.700000
1.000000 0.252500 0.700000
1.000000 0.252500 0.700000
0.040000 0.378750 0.700000
0.180000 0.378750 0.700000
0.320000 0.378750 0.700000
0.460000 0.378750 0.700000
0.600000 0.378750 0.700000
0.740000 0.378750 0.700000
0.880000 0.378750 0.700000
1.000000 0.378750 0.700000
1.000000 0.378750 0.700000
0.040000 0.505000 0.700000
0.180000 0.505000 0.700000
0.320000 0.505000 0.700000
0.460000 0.505000 0.700000
0.600000 0.505000 0.700000
0.740000 0.505000 0.700000
0.880000 0.505000 0.700000
1.000000 0.505000 0.700000
1.000000 0.505000 0.700000
0.040000 0.631250 0.700000
0.180000 0.631250 0.700000
0.320000 0.631250 0.700000
0.460000 0.631250 0.700000
0.600000 0.631250 0.700000
0.740000 0.631250 0.700000
0.880000 0.631250 0.700000
1.000000 0.631250 0.700000
1.000000 0.631250 0.700000
0.040000 0.757500 0.700000
0.180000 0.757500 0.700000
0.320000 0.757500 0.700000
0.460000 0.757500 0.700000
0.600000 0.757500 0.700000
0.740000 0.757500 0.700000
0.880000 0.757500 0.700000
1.000000 0.757500 0.700000
1.000000 0.757500 0.700000
0.040000 0.883750 0.700000
0.180000 0.883750 0.700000
0.320000 0.883750 0.700000
0.460000 0.883750 0.700000
0.600000 0.883750 0.700000
0.740000 0.883750 0.700000
0.880000 0.883750 0.700000
1.000000 0.883750 0.700000
1.000000 0.883750 0.700000
0.040000 1.000000 0.700000
0.180000 1.000000 0.700000
0.320000 1.000000 0.700000
0.460000 1.000000 0.700000
0.600000 1.000000 0.700000
0.740000 1.000000 0.700000
0.880000 1.000000 0.700000
1.000000 1.000000 0.700000
1.000000 1.000000 0.700000
0.040000 0.000000 0.800000
0.180000 0.000000 0.800000
0.320000 0.000000 0.800000
0.460000 0.000000 0.800000
0.600000 0.000000 0.800000
0.740000 0.000000 0.800000
0.880000 0.000000 0.800000
1.000000 0.000000 0.800000
1.000000 0.000000 0.800000
0.040000 0.126250 0.800000
0.180000 0.126250 0.800000
0.320000 0.126250 0.800000
0.460000 0.126250 0.800000
0.600000 0.126250 0.800000
0.740000 0.126250 0.800000
0.880000 0.126250 0.800000
1.000000 0.126250 0.800000
1.000000 0.126250 0.800000
0.040000 0.252500 0.800000
0.180000 0.252500 0.800000
0.320000 0.252500 0.800000
0.460000 0.252500 0.800000
0.600000 0.252500 0.800000
0.740000 0.252500 0.800000
0.880000 0.252500 0.800000
1.000000 0.252500 0.800000
1.000000 0.252500 0.800000
0.040000 0.378750 0.800000
0.180000 0.378750 0.800000
0.320000 0.378750 0.800000
0.460000 0.378750 0.800000
0.600000 0.378750 0.800000
0.740000 0.378750 0.800000
0.880000 0.378750 0.800000
1.000000 0.378750 0.800000
1.000000 0.378750 0.800000
0.040000 0.505000 0.800000
0.180000 0.505000 0.800000
0.320000 0.505000 0.800000
0.460000 0.505000 0.800000
0.600000 0.505000 0.800000
0.740000 0.505000 0.800000
0.880000 0.505000 0.800000
1.000000 0.505000 0.800000
1.000000 0.505000 0.800000
0.040000 0.631250 0.800000
0.180000 0.631250 0.800000
0.320000 0.631250 0.800000
0.460000 0.631250 0.800000
0.600000 0.631250 0.800000
0.740000 0.631250 0.800000
0.880000 0.631250 0.800000
1.000000 0.631250 0.800000
1.000000 0.631250 0.800000
0.040000 0.757500 0.800000
0.180000 0.757500 0.800000
0.320000 0.757500 0.800000
0.460000 0.757500 0.800000
0.600000 0.757500 0.800000
0.740000 0.757500 0.800000
0.880000 0.757500 0.800000
1.000000 0.757500 0.800000
1.000000 0.757500 0.800000
0.040000 0.883750 0.800000
0.180000 0.883750 0.800000
0.320000 0.883750 0.800000
0.460000 0.883750 0.800000
0.600000 0.883750 0.800000
0.740000 0.883750 0.800000
0.880000 0.883750 0.800000
1.000000 0.883750 0.800000
1.000000 0.883750 0.800000
0.040000 1.000000 0.800000
0.180000 1.000000 0.800000
0.320000 1.000000 0.800000
0.460000 1.000000 0.800000
0.600000 1.000000 0.800000
0.740000 1.000000 0.800000
0.880000 1.000000 0.800000
1.000000 1.000000 0.800000
1.000000 1.000000 0.800000
