filters/warm.cube
TITLE "warm"
LUT_3D_SIZE 17
0.040000 0.000000 0.000000
0.110000 0.000000 0.000000
0.180000 0.000000 0.000000
0.250000 0.000000 0.000000
0.320000 0.000000 0.000000
0.390000 0.000000 0.000000
0.460000 0.000000 0.000000
0.530000 0.000000 0.000000
0.600000 0.000000 0.000000
0.670000 0.000000 0.000000
0.740000 0.000000 0.000000
0.810000 0.000000 0.000000
0.880000 0.000000 0.000000
0.950000 0.000000 0.000000
1.000000 0.000000 0.000000
1.000000 0.000000 0.000000
1.000000 0.000000 0.000000
0.040000 0.063125 0.000000
0.110000 0.063125 0.000000
0.180000 0.063125 0.000000
0.250000 0.063125 0.000000
0.320000 0.063125 0.000000
0.390000 0.063125 0.000000
0.460000 0.063125 0.000000
0.530000 0.063125 0.000000
0.600000 0.063125 0.000000
0.670000 0.063125 0.000000
0.740000 0.063125 0.000000
0.810000 0.063125 0.000000
0.880000 0.063125 0.000000
0.950000 0.063125 0.000000
1.000000 0.063125 0.000000
1.000000 0.063125 0.000000
1.000000 0.063125 0.000000
0.040000 0.126250 0.000000
0.110000 0.126250 0.000000
0.180000 0.126250 0.000000
0.250000 0.126250 0.000000
0.320000 0.126250 0.000000
0.390000 0.126250 0.000000
0.460000 0.126250 0.000000
0.530000 0.126250 0.000000
0.600000 0.126250 0.000000
0.670000 0.126250 0.000000
0.740000 0.126250 0.000000
0.810000 0.126250 0.000000
0.880000 0.126250 0.000000
0.950000 0.126250 0.000000
1.000000 0.126250 0.000000
1.000000 0.126250 0.000000
1.000000 0.126250 0.000000
0.040000 0.189375 0.000000
0.110000 0.189375 0.000000
0.180000 0.189375 0.000000
0.250000 0.189375 0.000000
0.320000 0.189375 0.000000
0.390000 0.189375 0.000000
0.460000 0.189375 0.000000
0.530000 0.189375 0.000000
0.600000 0.189375 0.000000
0.670000 0.189375 0.000000
0.740000 0.189375 0.000000
0.810000 0.189375 0.000000
0.880000 0.189375 0.000000
0.950000 0.189375 0.000000
1.000000 0.189375 0.000000
1.000000 0.189375 0.000000
1.000000 0.189375 0.000000
0.040000 0.252500 0.000000
0.110000 0.252500 0.000000
0.180000 0.252500 0.000000
0.250000 0.252500 0.000000
0.320000 0.252500 0.000000
0.390000 0.252500 0.000000
0.460000 0.252500 0.000000
0.530000 0.252500 0.000000
0.600000 0.252500 0.000000
0.670000 0.252500 0.000000
0.740000 0.252500 0.000000
0.810000 0.252500 0.000000
0.880000 0.252500 0.000000
0.950000 0.252500 0.000000
1.000000 0.252500 0.000000
1.000000 0.252500 0.000000
1.000000 0.252500 0.000000
0.040000 0.315625 0.000000
0.110000 0.315625 0.000000
0.180000 0.315625 0.000000
0.250000 0.315625 0.000000
0.320000 0.315625 0.000000
0.390000 0.315625 0.000000
0.460000 0.315625 0.000000
0.530000 0.315625 0.000000
0.600000 0.315625 0.000000
0.670000 0.315625 0.000000
0.740000 0.315625 0.000000
0.810000 0.315625 0.000000
0.880000 0.315625 0.000000
0.950000 0.315625 0.000000
1.000000 0.315625 0.000000
1.000000 0.315625 0.000000
1.000000 0.315625 0.000000
0.040000 0.378750 0.000000
0.110000 0.378750 0.000000
0.180000 0.378750 0.000000
0.250000 0.378750 0.000000
0.320000 0.378750 0.000000
0.390000 0.378750 0.000000
0.460000 0.378750 0.000000
0.530000 0.378750 0.000000
0.600000 0.378750 0.000000
0.670000 0.378750 0.000000
0.740000 0.378750 0.000000
0.810000 0.378750 0.000000
0.880000 0.378750 0.000000
0.950000 0.378750 0.000000
1.000000 0.378750 0.000000
1.000000 0.378750 0.000000
1.000000 0.378750 0.000000
0.040000 0.441875 0.000000
0.110000 0.441875 0.000000
0.180000 0.441875 0.000000
0.250000 0.441875 0.000000
0.320000 0.441875 0.000000
0.390000 0.441875 0.000000
0.460000 0.441875 0.000000
0.530000 0.441875 0.000000
0.600000 0.441875 0.000000
0.670000 0.441875 0.000000
0.740000 0.441875 0.000000
0.810000 0.441875 0.000000
0.880000 0.441875 0.000000
0.950000 0.441875 0.000000
1.000000 0.441875 0.000000
1.000000 0.441875 0.000000
1.000000 0.441875 0.000000
0.040000 0.505000 0.000000
0.110000 0.505000 0.000000
0.180000 0.505000 0.000000
0.250000 0.505000 0.000000
0.320000 0.505000 0.000000
0.390000 0.505000 0.000000
0.460000 0.505000 0.000000
0.530000 0.505000 0.000000
0.600000 0.505000 0.000000
0.670000 0.505000 0.000000
0.740000 0.505000 0.000000
0.810000 0.505000 0.000000
0.880000 0.505000 0.000000
0.950000 0.505000 0.000000
1.000000 0.505000 0.000000
1.000000 0.505000 0.000000
1.000000 0.505000 0.000000
0.040000 0.568125 0.000000
0.110000 0.568125 0.000000
0.180000 0.568125 0.000000
0.250000 0.568125 0.000000
0.320000 0.568125 0.000000
0.390000 0.568125 0.000000
0.460000 0.568125 0.000000
0.530000 0.568125 0.000000
0.600000 0.568125 0.000000
0.670000 0.568125 0.000000
0.740000 0.568125 0.000000
0.810000 0.568125 0.000000
0.880000 0.568125 0.000000
0.950000 0.568125 0.000000
1.000000 0.568125 0.000000
1.000000 0.568125 0.000000
1.000000 0.568125 0.000000
0.040000 0.631250 0.000000
0.110000 0.631250 0.000000
0.180000 0.631250 0.000000
0.250000 0.631250 0.000000
0.320000 0.631250 0.000000
0.390000 0.631250 0.000000
0.460000 0.631250 0.000000
0.530000 0.631250 0.000000
0.600000 0.631250 0.000000
0.670000 0.631250 0.000000
0.740000 0.631250 0.000000
0.810000 0.631250 0.000000
0.880000 0.631250 0.000000
0.950000 0.631250 0.000000
1.000000 0.631250 0.000000
1.000000 0.631250 0.000000
1.000000 0.631250 0.000000
0.040000 0.694375 0.000000
0.110000 0.694375 0.000000
0.180000 0.694375 0.000000
0.250000 0.694375 0.000000
0.320000 0.694375 0.000000
0.390000 0.694375 0.000000
0.460000 0.694375 0.000000
0.530000 0.694375 0.000000
0.600000 0.694375 0.000000
0.670000 0.694375 0.000000
0.740000 0.694375 0.000000
0.810000 0.694375 0.000000
0.880000 0.694375 0.000000
0.950000 0.694375 0.000000
1.000000 0.694375 0.000000
1.000000 0.694375 0.000000
1.000000 0.694375 0.000000
0.040000 0.757500 0.000000
0.110000 0.757500 0.000000
0.180000 0.757500 0.000000
0.250000 0.757500 0.000000
0.320000 0.757500 0.000000
0.390000 0.757500 0.000000
0.460000 0.757500 0.000000
0.530000 0.757500 0.000000
0.600000 0.757500 0.000000
0.670000 0.757500 0.000000
0.740000 0.757500 0.000000
0.810000 0.757500 0.000000
0.880000 0.757500 0.000000
0.950000 0.757500 0.000000
1.000000 0.757500 0.000000
1.000000 0.757500 0.000000
1.000000 0.757500 0.000000
0.040000 0.820625 0.000000
0.110000 0.820625 0.000000
0.180000 0.820625 0.000000
0.250000 0.820625 0.000000
0.320000 0.820625 0.000000
0.390000 0.820625 0.000000
0.460000 0.820625 0.000000
0.530000 0.820625 0.000000
0.600000 0.820625 0.000000
0.670000 0.820625 0.000000
0.740000 0.820625 0.000000
0.810000 0.820625 0.000000
0.880000 0.820625 0.000000
0.950000 0.820625 0.000000
1.000000 0.820625 0.000000
1.000000 0.820625 0.000000
1.000000 0.820625 0.000000
0.040000 0.883750 0.000000
0.110000 0.883750 0.000000
0.180000 0.883750 0.000000
0.250000 0.883750 0.000000
0.320000 0.883750 0.000000
0.390000 0.883750 0.000000
0.460000 0.883750 0.000000
0.530000 0.883750 0.000000
0.600000 0.883750 0.000000
0.670000 0.883750 0.000000
0.740000 0.883750 0.000000
0.810000 0.883750 0.000000
0.880000 0.883750 0.000000
0.950000 0.883750 0.000000
1.000000 0.883750 0.000000
1.000000 0.883750 0.000000
1.000000 0.883750 0.000000
0.040000 0.946875 0.000000
0.110000 0.946875 0.000000
0.180000 0.946875 0.000000
0.250000 0.946875 0.000000
0.320000 0.946875 0.000000
0.390000 0.946875 0.000000
0.460000 0.946875 0.000000
0.530000 0.946875 0.000000
0.600000 0.946875 0.000000
0.670000 0.946875 0.000000
0.740000 0.946875 0.000000
0.810000 0.946875 0.000000
0.880000 0.946875 0.000000
0.950000 0.946875 0.000000
1.000000 0.946875 0.000000
1.000000 0.946875 0.000000
1.000000 0.946875 0.000000
0.040000 1.000000 0.000000
0.110000 1.000000 0.000000
0.180000 1.000000 0.000000
0.250000 1.000000 0.000000
0.320000 1.000000 0.000000
0.390000 1.000000 0.000000
0.460000 1.000000 0.000000
0.530000 1.000000 0.000000
0.600000 1.000000 0.000000
0.670000 1.000000 0.000000
0.740000 1.000000 0.000000
0.810000 1.000000 0.000000
0.880000 1.000000 0.000000
0.950000 1.000000 0.000000
1.000000 1.000000 0.000000
1.000000 1.000000 0.000000
1.000000 1.000000 0.000000
0.040000 0.000000 0.050000
0.110000 0.000000 0.050000
0.180000 0.000000 0.050000
0.250000 0.000000 0.050000
0.320000 0.000000 0.050000
0.390000 0.000000 0.050000
0.460000 0.000000 0.050000
0.530000 0.000000 0.050000
0.600000 0.000000 0.050000
0.670000 0.000000 0.050000
0.740000 0.000000 0.050000
0.810000 0.000000 0.050000
0.880000 0.000000 0.050000
0.950000 0.000000 0.050000
1.000000 0.000000 0.050000
1.000000 0.000000 0.050000
1.000000 0.000000 0.050000
0.040000 0.063125 0.050000
0.110000 0.063125 0.050000
0.180000 0.063125 0.050000
0.250000 0.063125 0.050000
0.320000 0.063125 0.050000
0.390000 0.063125 0.050000
0.460000 0.063125 0.050000
0.530000 0.063125 0.050000
0.600000 0.063125 0.050000
0.670000 0.063125 0.050000
0.740000 0.063125 0.050000
0.810000 0.063125 0.050000
0.880000 0.063125 0.050000
0.950000 0.063125 0.050000
1.000000 0.063125 0.050000
1.000000 0.063125 0.050000
1.000000 0.063125 0.050000
0.040000 0.126250 0.050000
0.110000 0.126250 0.050000
0.180000 0.126250 0.050000
0.250000 0.126250 0.050000
0.320000 0.126250 0.050000
0.390000 0.126250 0.050000
0.460000 0.126250 0.050000
0.530000 0.126250 0.050000
0.600000 0.126250 0.050000
0.670000 0.126250 0.050000
0.740000 0.126250 0.050000
0.810000 0.126250 0.050000
0.880000 0.126250 0.050000
0.950000 0.126250 0.050000
1.000000 0.126250 0.050000
1.000000 0.126250 0.050000
1.000000 0.126250 0.050000
0.040000 0.189375 0.050000
0.110000 0.189375 0.050000
0.180000 0.189375 0.050000
0.250000 0.189375 0.050000
0.320000 0.189375 0.050000
0.390000 0.189375 0.050000
0.460000 0.189375 0.050000
0.530000 0.189375 0.050000
0.600000 0.189375 0.050000
0.670000 0.189375 0.050000
0.740000 0.189375 0.050000
0.810000 0.189375 0.050000
0.880000 0.189375 0.050000
0.950000 0.189375 0.050000
1.000000 0.189375 0.050000
1.000000 0.189375 0.050000
1.000000 0.189375 0.050000
0.040000 0.252500 0.050000
0.110000 0.252500 0.050000
0.180000 0.252500 0.050000
0.250000 0.252500 0.050000
0.320000 0.252500 0.050000
0.390000 0.252500 0.050000
0.460000 0.252500 0.050000
0.530000 0.252500 0.050000
0.600000 0.252500 0.050000
0.670000 0.252500 0.050000
0.740000 0.252500 0.050000
0.810000 0.252500 0.050000
0.880000 0.252500 0.050000
0.950000 0.252500 0.050000
1.000000 0.252500 0.050000
1.000000 0.252500 0.050000
1.000000 0.252500 0.050000
0.040000 0.315625 0.050000
0.110000 0.315625 0.050000
0.180000 0.315625 0.050000
0.250000 0.315625 0.050000
0.320000 0.315625 0.050000
0.390000 0.315625 0.050000
0.460000 0.315625 0.050000
0.530000 0.315625 0.050000
0.600000 0.315625 0.050000
0.670000 0.315625 0.050000
0.740000 0.315625 0.050000
0.810000 0.315625 0.050000
0.880000 0.315625 0.050000
0.950000 0.315625 0.050000
1.000000 0.315625 0.050000
1.000000 0.315625 0.050000
1.000000 0.315625 0.050000
0.040000 0.378750 0.050000
0.110000 0.378750 0.050000
0.180000 0.378750 0.050000
0.250000 0.378750 0.050000
0.320000 0.378750 0.050000
0.390000 0.378750 0.050000
0.460000 0.378750 0.050000
0.530000 0.378750 0.050000
0.600000 0.378750 0.050000
0.670000 0.378750 0.050000
0.740000 0.378750 0.050000
0.810000 0.378750 0.050000
0.880000 0.378750 0.050000
0.950000 0.378750 0.050000
1.000000 0.378750 0.050000
1.000000 0.378750 0.050000
1.000000 0.378750 0.050000
0.040000 0.441875 0.050000
0.110000 0.441875 0.050000
0.180000 0.441875 0.050000
0.250000 0.441875 0.050000
0.320000 0.441875 0.050000
0.390000 0.441875 0.050000
0.460000 0.441875 0.050000
0.530000 0.441875 0.050000
0.600000 0.441875 0.050000
0.670000 0.441875 0.050000
0.740000 0.441875 0.050000
0.810000 0.441875 0.050000
0.880000 0.441875 0.050000
0.950000 0.441875 0.050000
1.000000 0.441875 0.050000
1.000000 0.441875 0.050000
1.000000 0.441875 0.050000
0.040000 0.505000 0.050000
0.110000 0.505000 0.050000
0.180000 0.505000 0.050000
0.250000 0.505000 0.050000
0.320000 0.505000 0.050000
0.390000 0.505000 0.050000
0.460000 0.505000 0.050000
0.530000 0.505000 0.050000
0.600000 0.505000 0.050000
0.670000 0.505000 0.050000
0.740000 0.505000 0.050000
0.810000 0.505000 0.050000
0.880000 0.505000 0.050000
0.950000 0.505000 0.050000
1.000000 0.505000 0.050000
1.000000 0.505000 0.050000
1.000000 0.505000 0.050000
0.040000 0.568125 0.050000
0.110000 0.568125 0.050000
0.180000 0.568125 0.050000
0.250000 0.568125 0.050000
0.320000 0.568125 0.050000
0.390000 0.568125 0.050000
0.460000 0.568125 0.050000
0.530000 0.568125 0.050000
0.600000 0.568125 0.050000
0.670000 0.568125 0.050000
0.740000 0.568125 0.050000
0.810000 0.568125 0.050000
0.880000 0.568125 0.050000
0.950000 0.568125 0.050000
1.000000 0.568125 0.050000
1.000000 0.568125 0.050000
1.000000 0.568125 0.050000
0.040000 0.631250 0.050000
0.110000 0.631250 0.050000
0.180000 0.631250 0.050000
0.250000 0.631250 0.050000
0.320000 0.631250 0.050000
0.390000 0.631250 0.050000
0.460000 0.631250 0.050000
0.530000 0.631250 0.050000
0.600000 0.631250 0.050000
0.670000 0.631250 0.050000
0.740000 0.631250 0.050000
0.810000 0.631250 0.050000
0.880000 0.631250 0.050000
0.950000 0.631250 0.050000
1.000000 0.631250 0.050000
1.000000 0.631250 0.050000
1.000000 0.631250 0.050000
0.040000 0.694375 0.050000
0.110000 0.694375 0.050000
0.180000 0.694375 0.050000
0.250000 0.694375 0.050000
0.320000 0.694375 0.050000
0.390000 0.694375 0.050000
0.460000 0.694375 0.050000
0.530000 0.694375 0.050000
0.600000 0.694375 0.050000
0.670000 0.694375 0.050000
0.740000 0.694375 0.050000
0.810000 0.694375 0.050000
0.880000 0.694375 0.050000
0.950000 0.694375 0.050000
1.000000 0.694375 0.050000
1.000000 0.694375 0.050000
1.000000 0.694375 0.050000
0.040000 0.757500 0.050000
0.110000 0.757500 0.050000
0.180000 0.757500 0.050000
0.250000 0.757500 0.050000
0.320000 0.757500 0.050000
0.390000 0.757500 0.050000
0.460000 0.757500 0.050000
0.530000 0.757500 0.050000
0.600000 0.757500 0.050000
0.670000 0.757500 0.050000
0.740000 0.757500 0.050000
0.810000 0.757500 0.050000
0.880000 0.757500 0.050000
0.950000 0.757500 0.050000
1.000000 0.757500 0.050000
1.000000 0.757500 0.050000
1.000000 0.757500 0.050000
0.040000 0.820625 0.050000
0.110000 0.820625 0.050000
0.180000 0.820625 0.050000
0.250000 0.820625 0.050000
0.320000 0.820625 0.050000
0.390000 0.820625 0.050000
0.460000 0.820625 0.050000
0.530000 0.820625 0.050000
0.600000 0.820625 0.050000
0.670000 0.820625 0.050000
0.740000 0.820625 0.050000
0.810000 0.820625 0.050000
0.880000 0.820625 0.050000
0.950000 0.820625 0.050000
1.000000 0.820625 0.050000
1.000000 0.820625 0.050000
1.000000 0.820625 0.050000
0.040000 0.883750 0.050000
0.110000 0.883750 0.050000
0.180000 0.883750 0.050000
0.250000 0.883750 0.050000
0.320000 0.883750 0.050000
0.390000 0.883750 0.050000
0.460000 0.883750 0.050000
0.530000 0.883750 0.050000
0.600000 0.883750 0.050000
0.670000 0.883750 0.050000
0.740000 0.883750 0.050000
0.810000 0.883750 0.050000
0.880000 0.883750 0.050000
0.950000 0.883750 0.050000
1.000000 0.883750 0.050000
1.000000 0.883750 0.050000
1.000000 0.883750 0.050000
0.040000 0.946875 0.050000
0.110000 0.946875 0.050000
0.180000 0.946875 0.050000
0.250000 0.946875 0.050000
0.320000 0.946875 0.050000
0.390000 0.946875 0.050000
0.460000 0.946875 0.050000
0.530000 0.946875 0.050000
0.600000 0.946875 0.050000
0.670000 0.946875 0.050000
0.740000 0.946875 0.050000
0.810000 0.946875 0.050000
0.880000 0.946875 0.050000
0.950000 0.946875 0.050000
1.000000 0.946875 0.050000
1.000000 0.946875 0.050000
1.000000 0.946875 0.050000
0.040000 1.000000 0.050000
0.110000 1.000000 0.050000
0.180000 1.000000 0.050000
0.250000 1.000000 0.050000
0.320000 1.000000 0.050000
0.390000 1.000000 0.050000
0.460000 1.000000 0.050000
0.530000 1.000000 0.050000
0.600000 1.000000 0.050000
0.670000 1.000000 0.050000
0.740000 1.000000 0.050000
0.810000 1.000000 0.050000
0.880000 1.000000 0.050000
0.950000 1.000000 0.050000
1.000000 1.000000 0.050000
1.000000 1.000000 0.050000
1.000000 1.000000 0.050000
0.040000 0.000000 0.100000
0.110000 0.000000 0.100000
0.180000 0.000000 0.100000
0.250000 0.000000 0.100000
0.320000 0.000000 0.100000
0.390000 0.000000 0.100000
0.460000 0.000000 0.100000
0.530000 0.000000 0.100000
0.600000 0.000000 0.100000
0.670000 0.000000 0.100000
0.740000 0.000000 0.100000
0.810000 0.000000 0.100000
0.880000 0.000000 0.100000
0.950000 0.000000 0.100000
1.000000 0.000000 0.100000
1.000000 0.000000 0.100000
1.000000 0.000000 0.100000
0.040000 0.063125 0.100000
0.110000 0.063125 0.100000
0.180000 0.063125 0.100000
0.250000 0.063125 0.100000
0.320000 0.063125 0.100000
0.390000 0.063125 0.100000
0.460000 0.063125 0.100000
0.530000 0.063125 0.100000
0.600000 0.063125 0.100000
0.670000 0.063125 0.100000
0.740000 0.063125 0.100000
0.810000 0.063125 0.100000
0.880000 0.063125 0.100000
0.950000 0.063125 0.100000
1.000000 0.063125 0.100000
1.000000 0.063125 0.100000
1.000000 0.063125 0.100000
0.040000 0.126250 0.100000
0.110000 0.126250 0.100000
0.180000 0.126250 0.100000
0.250000 0.126250 0.100000
0.320000 0.126250 0.100000
0.390000 0.126250 0.100000
0.460000 0.126250 0.100000
0.530000 0.126250 0.100000
0.600000 0.126250 0.100000
0.670000 0.126250 0.100000
0.740000 0.126250 0.100000
0.810000 0.126250 0.100000
0.880000 0.126250 0.100000
0.950000 0.126250 0.100000
1.000000 0.126250 0.100000
1.000000 0.126250 0.100000
1.000000 0.126250 0.100000
0.040000 0.189375 0.100000
0.110000 0.189375 0.100000
0.180000 0.189375 0.100000
0.250000 0.189375 0.100000
0.320000 0.189375 0.100000
0.390000 0.189375 0.100000
0.460000 0.189375 0.100000
0.530000 0.189375 0.100000
0.600000 0.189375 0.100000
0.670000 0.189375 0.100000
0.740000 0.189375 0.100000
0.810000 0.189375 0.100000
0.880000 0.189375 0.100000
0.950000 0.189375 0.100000
1.000000 0.189375 0.100000
1.000000 0.189375 0.100000
1.000000 0.189375 0.100000
0.040000 0.252500 0.100000
0.110000 0.252500 0.100000
0.180000 0.252500 0.100000
0.250000 0.252500 0.100000
0.320000 0.252500 0.100000
0.390000 0.252500 0.100000
0.460000 0.252500 0.100000
0.530000 0.252500 0.100000
0.600000 0.252500 0.100000
0.670000 0.252500 0.100000
0.740000 0.252500 0.100000
0.810000 0.252500 0.100000
0.880000 0.252500 0.100000
0.950000 0.252500 0.100000
1.000000 0.252500 0.100000
1.000000 0.252500 0.100000
1.000000 0.252500 0.100000
0.040000 0.315625 0.100000
0.110000 0.315625 0.100000
0.180000 0.315625 0.100000
0.250000 0.315625 0.100000
0.320000 0.315625 0.100000
0.390000 0.315625 0.100000
0.460000 0.315625 0.100000
0.530000 0.315625 0.100000
0.600000 0.315625 0.100000
0.670000 0.315625 0.100000
0.740000 0.315625 0.100000
0.810000 0.315625 0.100000
0.880000 0.315625 0.100000
0.950000 0.315625 0.100000
1.000000 0.315625 0.100000
1.000000 0.315625 0.100000
1.000000 0.315625 0.100000
0.040000 0.378750 0.100000
0.110000 0.378750 0.100000
0.180000 0.378750 0.100000
0.250000 0.378750 0.100000
0.320000 0.378750 0.100000
0.390000 0.378750 0.100000
0.460000 0.378750 0.100000
0.530000 0.378750 0.100000
0.600000 0.378750 0.100000
0.670000 0.378750 0.100000
0.740000 0.378750 0.100000
0.810000 0.378750 0.100000
0.880000 0.378750 0.100000
0.950000 0.378750 0.100000
1.000000 0.378750 0.100000
1.000000 0.378750 0.100000
1.000000 0.378750 0.100000
0.040000 0.441875 0.100000
0.110000 0.441875 0.100000
0.180000 0.441875 0.100000
0.250000 0.441875 0.100000
0.320000 0.441875 0.100000
0.390000 0.441875 0.100000
0.460000 0.441875 0.100000
0.530000 0.441875 0.100000
0.600000 0.441875 0.100000
0.670000 0.441875 0.100000
0.740000 0.441875 0.100000
0.810000 0.441875 0.100000
0.880000 0.441875 0.100000
0.950000 0.441875 0.100000
1.000000 0.441875 0.100000
1.000000 0.441875 0.100000
1.000000 0.441875 0.100000
0.040000 0.505000 0.100000
0.110000 0.505000 0.100000
0.180000 0.505000 0.100000
0.250000 0.505000 0.100000
0.320000 0.505000 0.100000
0.390000 0.505000 0.100000
0.460000 0.505000 0.100000
0.530000 0.505000 0.100000
0.600000 0.505000 0.100000
0.670000 0.505000 0.100000
0.740000 0.505000 0.100000
0.810000 0.505000 0.100000
0.880000 0.505000 0.100000
0.950000 0.505000 0.100000
1.000000 0.505000 0.100000
1.000000 0.505000 0.100000
1.000000 0.505000 0.100000
0.040000 0.568125 0.100000
0.110000 0.568125 0.100000
0.180000 0.568125 0.100000
0.250000 0.568125 0.100000
0.320000 0.568125 0.100000
0.390000 0.568125 0.100000
0.460000 0.568125 0.100000
0.530000 0.568125 0.100000
0.600000 0.568125 0.100000
0.670000 0.568125 0.100000
0.740000 0.568125 0.100000
0.810000 0.568125 0.100000
0.880000 0.568125 0.100000
0.950000 0.568125 0.100000
1.000000 0.568125 0.100000
1.000000 0.568125 0.100000
1.000000 0.568125 0.100000
0.040000 0.631250 0.100000
0.110000 0.631250 0.100000
0.180000 0.631250 0.100000
0.250000 0.631250 0.100000
0.320000 0.631250 0.100000
0.390000 0.631250 0.100000
0.460000 0.631250 0.100000
0.530000 0.631250 0.100000
0.600000 0.631250 0.100000
0.670000 0.631250 0.100000
0.740000 0.631250 0.100000
0.810000 0.631250 0.100000
0.880000 0.631250 0.100000
0.950000 0.631250 0.100000
1.000000 0.631250 0.100000
1.000000 0.631250 0.100000
1.000000 0.631250 0.100000
0.040000 0.694375 0.100000
0.110000 0.694375 0.100000
0.180000 0.694375 0.100000
0.250000 0.694375 0.100000
0.320000 0.694375 0.100000
0.390000 0.694375 0.100000
0.460000 0.694375 0.100000
0.530000 0.694375 0.100000
0.600000 0.694375 0.100000
0.670000 0.694375 0.100000
0.740000 0.694375 0.100000
0.810000 0.694375 0.100000
0.880000 0.694375 0.100000
0.950000 0.694375 0.100000
1.000000 0.694375 0.100000
1.000000 0.694375 0.100000
1.000000 0.694375 0.100000
0.040000 0.757500 0.100000
0.110000 0.757500 0.100000
0.180000 0.757500 0.100000
0.250000 0.757500 0.100000
0.320000 0.757500 0.100000
0.390000 0.757500 0.100000
0.460000 0.757500 0.100000
0.530000 0.757500 0.100000
0.600000 0.757500 0.100000
0.670000 0.757500 0.100000
0.740000 0.757500 0.100000
0.810000 0.757500 0.100000
0.880000 0.757500 0.100000
0.950000 0.757500 0.100000
1.000000 0.757500 0.100000
1.000000 0.757500 0.100000
1.000000 0.757500 0.100000
0.040000 0.820625 0.100000
0.110000 0.820625 0.100000
0.180000 0.820625 0.100000
0.250000 0.820625 0.100000
0.320000 0.820625 0.100000
0.390000 0.820625 0.100000
0.460000 0.820625 0.100000
0.530000 0.820625 0.100000
0.600000 0.820625 0.100000
0.670000 0.820625 0.100000
0.740000 0.820625 0.100000
0.810000 0.820625 0.100000
0.880000 0.820625 0.100000
0.950000 0.820625 0.100000
1.000000 0.820625 0.100000
1.000000 0.820625 0.100000
1.000000 0.820625 0.100000
0.040000 0.883750 0.100000
0.110000 0.883750 0.100000
0.180000 0.883750 0.100000
0.250000 0.883750 0.100000
0.320000 0.883750 0.100000
0.390000 0.883750 0.100000
0.460000 0.883750 0.100000
0.530000 0.883750 0.100000
0.600000 0.883750 0.100000
0.670000 0.883750 0.100000
0.740000 0.883750 0.100000
0.810000 0.883750 0.100000
0.880000 0.883750 0.100000
0.950000 0.883750 0.100000
1.000000 0.883750 0.100000
1.000000 0.883750 0.100000
1.000000 0.883750 0.100000
0.040000 0.946875 0.100000
0.110000 0.946875 0.100000
0.180000 0.946875 0.100000
0.250000 0.946875 0.100000
0.320000 0.946875 0.100000
0.390000 0.946875 0.100000
0.460000 0.946875 0.100000
0.530000 0.946875 0.100000
0.600000 0.946875 0.100000
0.670000 0.946875 0.100000
0.740000 0.946875 0.100000
0.810000 0.946875 0.100000
0.880000 0.946875 0.100000
0.950000 0.946875 0.100000
1.000000 0.946875 0.100000
1.000000 0.946875 0.100000
1.000000 0.946875 0.100000
0.040000 1.000000 0.100000
0.110000 1.000000 0.100000
0.180000 1.000000 0.100000
0.250000 1.000000 0.100000
0.320000 1.000000 0.100000
0.390000 1.000000 0.100000
0.460000 1.000000 0.100000
0.530000 1.000000 0.100000
0.600000 1.000000 0.100000
0.670000 1.000000 0.100000
0.740000 1.000000 0.100000
0.810000 1.000000 0.100000
0.880000 1.000000 0.100000
0.950000 1.000000 0.100000
1.000000 1.000000 0.100000
1.000000 1.000000 0.100000
1.000000 1.000000 0.100000
0.040000 0.000000 0.150000
0.110000 0.000000 0.150000
0.180000 0.000000 0.150000
0.250000 0.000000 0.150000
0.320000 0.000000 0.150000
0.390000 0.000000 0.150000
0.460000 0.000000 0.150000
0.530000 0.000000 0.150000
0.600000 0.000000 0.150000
0.670000 0.000000 0.150000
0.740000 0.000000 0.150000
0.810000 0.000000 0.150000
0.880000 0.000000 0.150000
0.950000 0.000000 0.150000
1.000000 0.000000 0.150000
1.000000 0.000000 0.150000
1.000000 0.000000 0.150000
0.040000 0.063125 0.150000
0.110000 0.063125 0.150000
0.180000 0.063125 0.150000
